X: 1
T: Szczęśliwy, który nie był miedzy złymi w radzie
C: Mikołaj Gomółka
%%abc-version 2.0
%%abcx-abcm2ps-target-version 5.9.1 (29 Sep 2008)
%%abc-creator hum2abc beta
%%abcx-conversion-date 2021/10/04 07:59:10
%%abc-edited-by Leszek Kubiak
%%abcx-initial-encoding-date 2020-01-31
%%humdrum-veritas 2044542679
%%humdrum-veritas-data 262715515
%%linebreak <none>
%%barnumbers 0
L: 1/4
M: C|
N: Derived from pl-wn--sd-xvi-qu-273--001_gomolka-mikolaj--szczesliwy-ktory-nie-byl-miedzy-zlymi-w-radzie.krn
%%staves [1 2 3 4]
V: 1
V: 2 clef=alto
V: 3 clef=alto
V: 4
K: C
[V:1] A4A2A2 [|] 
[V:2] F4F2F2 [|] 
[V:3] D4C2D2 [|] 
[V:4] D,4F,2D,2 [|] 
[V:1] B4c2c4 [|] 
[V:2] G4G2G4 [|] 
[V:3] D4E2E4 [|] 
[V:4] G,4C,2C4 [|] 
[V:1] B2A2^G2 [|] 
[V:2] G2FEE2 [|] 
[V:3] D2C2B,2 [|] 
[V:4] G,2A,2E,2 [|] 
[V:1] A2A4G^F [|] 
[V:2] CDE4D2 [|] 
[V:3] A,2C4B,A, [|] 
[V:4] A,,2A,G,F,E,_d2 [|] 
[V:1] G2B2B2d2 [|] 
[V:2] E2G2G2A2 [|] 
[V:3] B,2E2D2F2 [|] 
[V:4] E,2E,2G,2D,2 [|] 
[V:1] c4B2c4 [|] 
[V:2] A,B,CDEFG2 [|] 
[V:3] E4E2E4 [|] 
[V:4] A,2A,,2E,2C,D, [|] 
[V:1] B2A2c2 [|] 
[V:2] G,A,B,CD2G2 [|] 
[V:3] D2F2E2 [|] 
[V:4] E,F,G,2D,2C,2 [|] 
[V:1] B2A4G2 [|] 
[V:2] F2F2E3D [|] 
[V:3] D2>C2B,A,B,2 [|] 
[V:4] D,2D,2E,4 [|] 
[V:1] A4G4 [|] 
[V:2] ^C4E4 [|] 
[V:3] A,4B,4 [|] 
[V:4] A,,4E,4 [|] 
[V:1] G2G4E2 [|] 
[V:2] E2E4E2 [|] 
[V:3] B,2B,4C2 [|] 
[V:4] E,2E,4C,2 [|] 
[V:1] A2A2G2E4 [|] 
[V:2] C2D2E2A,3 [|] 
[V:3] A,2A,2B,2C4 [|] 
[V:4] F,2F,2E,2A,4 [|] 
[V:1] F4G2 [|] 
[V:2] B,2<C2DE2 [|] 
[V:3] A,4B,2 [|] 
[V:4] F,4E,2 [|] 
[V:1] G2F2G2B2 [|] 
[V:2] E2DCD2E2 [|] 
[V:3] C2C2B,2G,2 [|] 
[V:4] A,2A,2G,2E,2 [|] 
[V:1] c2B2A2A2 [|] 
[V:2] E2E2E2D2 [|] 
[V:3] A,2B,2C2A,2 [|] 
[V:4] A,2G,2A,2F,2 [|] 
[V:1] G2>F2E2c2 [|] 
[V:2] E4E2E2 [|] 
[V:3] B,4C2C2 [|] 
[V:4] E,2>D,2C,B,,A,,2 [|] 
[V:1] B2A2A2^G2 [|] 
[V:2] F2D2E3D [|] 
[V:3] DCB,A,B,2B,2 [|] 
[V:4] D,2F,2E,2E,2 [|] 
[V:1] !fermata!A8 |]  
[V:2] ^C8 |]  
[V:3] !fermata!A,8 |]  
[V:4] !fermata!A,,8 |]  


